X:1
T:Romanian Folk Dance No. 1
C:Béla Bartók
M:2/4
L:1/4
Q:1/4=132
K:Am
A/ B/ c/ d/ | e/ d/ c/ B/ | A/ B/ c/ d/ | e2 | d/ e/ f/ e/ | d/ c/ B/ A/ | G/ A/ B/ c/ | A2 |]
